icons/breezeLight/actions/16/zoom-out.svg

<svg height="16" viewBox="0 0 16 16" width="16" xmlns="http://www.w3.org/2000/svg"><path d="m2 2v5h1v-4h10v10h-4v1h5v-12zm9.292969 2-2.292969 2.292969v-2.292969h-1v4h4v-1h-2.292969l2.292969-2.2929688zm-9.292969 5v2h1v-1h1v-1zm3 0v1h1v1h1v-2zm-3 3v2h2v-1h-1v-1zm4 0v1h-1v1h2v-2z" fill="#4d4d4d"/></svg>

<?xml version="1.0" encoding="UTF-8" standalone="no"?>
<svg
   xmlns:dc="http://purl.org/dc/elements/1.1/"
   xmlns:cc="http://creativecommons.org/ns#"
   xmlns:rdf="http://www.w3.org/1999/02/22-rdf-syntax-ns#"
   xmlns:svg="http://www.w3.org/2000/svg"
   xmlns="http://www.w3.org/2000/svg"
   xmlns:sodipodi="http://sodipodi.sourceforge.net/DTD/sodipodi-0.dtd"
   xmlns:inkscape="http://www.inkscape.org/namespaces/inkscape"
   inkscape:version="1.0beta1 (fe3e306, 2019-09-17)"
   height="16"
   width="16"
   sodipodi:docname="zoom-out.svg"
   id="svg6"
   version="1.1"
   viewBox="0 0 16 16">
  <metadata
     id="metadata10">
    <rdf:RDF>
      <cc:Work
         rdf:about="">
        <dc:format>image/svg+xml</dc:format>
        <dc:type
           rdf:resource="http://purl.org/dc/dcmitype/StillImage" />
        <dc:title></dc:title>
      </cc:Work>
    </rdf:RDF>
  </metadata>
  <sodipodi:namedview
     inkscape:current-layer="svg6"
     inkscape:window-maximized="0"
     inkscape:window-y="0"
     inkscape:window-x="428"
     inkscape:cy="9.2112795"
     inkscape:cx="9.1012259"
     inkscape:zoom="30.341309"
     showgrid="true"
     id="namedview8"
     inkscape:window-height="1042"
     inkscape:window-width="1476"
     inkscape:pageshadow="2"
     inkscape:pageopacity="0"
     guidetolerance="10"
     gridtolerance="10"
     objecttolerance="10"
     borderopacity="1"
     inkscape:document-rotation="0"
     bordercolor="#666666"
     pagecolor="#ffffff">
    <inkscape:grid
       id="grid835"
       type="xygrid" />
  </sodipodi:namedview>
  <defs
     id="defs3051">
    <style
       id="current-color-scheme"
       type="text/css">
      .ColorScheme-Text {
        color:#4d4d4d;
      }
      </style>
  </defs>
  <path
     sodipodi:nodetypes="ccccccccccccccccccccccccccccccccccccccccccccccccc"
     inkscape:connector-curvature="0"
     id="path4"
     class="ColorScheme-Text"
     d="M 2,2 V 7 H 3 V 3 H 13 V 13 H 9 v 1 h 5 V 2 Z M 11.292969,4 9,6.292969 V 4 H 8 v 4 h 4 V 7 H 9.707031 L 12,4.7070312 Z M 2,9 v 2 H 3 V 10 H 4 V 9 Z m 3,0 v 1 h 1 v 1 H 7 V 9 Z m -3,3 v 2 H 4 V 13 H 3 v -1 z m 4,0 v 1 H 5 v 1 h 2 v -2 z"
     style="fill:currentColor;fill-opacity:1;stroke:none" />
</svg>
